!!!COM: Palestrina, Giovanni Perluigi da
!!!OPR: Missa Jam Christus astra ascenderat
!!!OMD: Credo
!!!OTL: Et in Spiritum
**kern	**kern	**kern	**kern
*Ibass	*Itenor	*Icalto	*Icant
!Bassus	!Tenor	!Altus	!Cantus
*clefF4	*clefGv2	*clefG2	*clefG2
*k[b-]	*k[b-]	*k[b-]	*k[b-]
*G:dor	*G:dor	*G:dor	*G:dor
*M4/2	*M4/2	*M4/2	*M4/2
=123	=123	=123	=123
0r	0r	1r	1.dd
.	.	1g	.
.	.	.	2ee
=124	=124	=124	=124
0r	0r	2a	2.ff
.	.	2.b-	.
.	.	.	4ee
.	.	.	2dd
.	.	4b-	.
.	.	2g	[2ee-
=125	=125	=125	=125
0r	0r	1b-	2ee-]
.	.	.	2dd
.	.	2a	2cc
.	.	2g	2b-
=126	=126	=126	=126
0r	0r	2f	2a
.	.	2e	2g
.	.	2d	2b-
.	.	2f	2a
=127	=127	=127	=127
0r	0r	2e	4g
.	.	.	4a
.	.	4d	4b-
.	.	4e	4cc
.	.	4f	2dd
.	.	4g	.
.	.	[2a	[2cc
=128	=128	=128	=128
0r	1r	4a]	4cc]
.	.	4g	4b-
.	.	1g	4b-
.	.	.	8a
.	.	.	8g
.	[1d	.	1a
.	.	2f#	.
=129	=129	=129	=129
1G	2d]	1g	1g
.	2e	.	.
2A	1f	1r	1r
[2B-	.	.	.
=130	=130	=130	=130
2B-]	2d	2r	0r
2G	2e-	1g	.
2B-	2d	.	.
2A	2c	2a	.
=131	=131	=131	=131
1G	2B-	2b-	2r
.	2.d	2g	1dd
2F	.	2a	.
.	4c	.	.
2E	[2c	2g	2ee
=132	=132	=132	=132
1D	2c]	1f	2ff
.	2B	.	2dd
1C	2.c	2r	2.ee-
.	.	2g	.
.	4B-	.	4dd
=133	=133	=133	=133
2r	2A	2a	2cc
1G	1d	2.g	1b-
.	.	4f	.
2A	2c#	[2e	2a
=134	=134	=134	=134
2B-	1d	4e]	2.g
.	.	4d	.
2G	.	1d	.
.	.	.	4f
1A	1r	.	1e
.	.	2c#	.
=135	=135	=135	=135
2.B-	2r	1d	0d
.	1G	.	.
4A	.	.	.
2G	.	2r	.
2F#	2A	[2d	.
=136	=136	=136	=136
2.G	2B-	2d]	0r
.	2G	2e	.
8F	.	.	.
8E	.	.	.
2.D	2A	2f	.
.	2B-	2d	.
4C	.	.	.
=137	=137	=137	=137
4D	2A	1f	0r
4E	.	.	.
4F	2.d	.	.
4G	.	.	.
1A	.	2e	.
.	4c#	.	.
.	4c#	2e	.
.	8B	.	.
.	8c#	.	.
=138	=138	=138	=138
1.B-	2d	2d	2r
.	1d	2f	1dd
.	.	2g	.
2A	2e	[2a	2cc
=139	=139	=139	=139
2F	2f	2a]	2cc
2G	2d	2g	2b
[1C	[1e-	[1a	[1cc
=140	=140	=140	=140
1C]	1e-]	1a]	1cc]
1D	1d	1f#	1a
=141	=141	=141	=141
1B-	2r	2r	1dd
.	2d	2f	.
2B-	2d	2g	2dd
2A	2e	2a	2cc
=142	=142	=142	=142
2F	2f	2a	2cc
2G	2d	2g	2b
1C	1e-	1g	1cc
=143	=143	=143	=143
0D	1d	0f#	2a
.	.	.	1dd
.	2r	.	.
.	[2d	.	2a
=144	=144	=144	=144
0r	2d]	2r	2b-
.	2A	2a	2cc
.	2B-	2d	2dd
.	2c	2e	4cc
.	.	.	4b-
=145	=145	=145	=145
2r	2.d	2f	2a
1d	.	2.a	4f
.	4e	.	4g
.	4f	.	4a
.	4g	4g	4b-
2A	2a	[2f	2cc
=146	=146	=146	=146
2B-	2g	4f]	2dd
.	.	8e	.
.	.	8d	.
2c	2g	2e	4cc
.	.	.	4b-
2d	2.f	2f	4a
.	.	.	4b-
2A	.	2c	[2cc
.	4e-	.	.
=147	=147	=147	=147
1B-	2d	0f	4cc]
.	.	.	4b-
.	4c	.	1b-
.	4B-	.	.
1F	1c	.	.
.	.	.	2a
=148	=148	=148	=148
2B-	2B-	1f	1b-
2B-	2d	.	.
2A	2c	1r	1r
2G	2B-	.	.
=149	=149	=149	=149
1A	1c	0r	0r
2F	2A	.	.
2D	2d	.	.
=150	=150	=150	=150
2G	2d	0r	0r
2E	2c#	.	.
1D	2d	.	.
.	2f	.	.
=151	=151	=151	=151
2r	2e	1r	2r
2B-	2d	.	2dd
2A	2.e	2r	2cc
2G	.	2g	2b
.	4e	.	.
=152	=152	=152	=152
2.A	2c	2f	2.cc
.	2A	2e	.
4A	.	.	4cc
2F	2.d	2.f	2a
2D	.	.	2dd
.	4c	4f	.
=153	=153	=153	=153
2G	2B-	2d	2dd
2E	2G	2g	2cc#
1D	1A	2g	1dd
.	.	2f#	.
=154	=154	=154	=154
2r	2r	1g	2r
2G	2B	.	2dd
2G	2B	2r	2dd
2G	2B	2g	2dd
=155	=155	=155	=155
2C	1.c	2g	1ee
2c	.	2g	.
4F	.	1a	1ff
4G	.	.	.
4A	2c	.	.
4B-	.	.	.
=156	=156	=156	=156
2c	2e	2g	2ee
2A	2f	2a	2cc
1B-	1d	2f	[1dd
.	.	2g	.
=157	=157	=157	=157
1A	1e	2a	2dd]
.	.	1a	2cc#
1r	1f	.	2r
.	.	2d	2dd
=158	=158	=158	=158
2r	0r	2e	2g
2d	.	2f	2a
2G	.	2g	2b-
2A	.	2e	2cc
=159	=159	=159	=159
1B-	2r	2d	2f
.	1d	2f	2.b-
1G	.	1g	.
.	.	.	4cc
.	2G	.	4dd
.	.	.	4ee
=160	=160	=160	=160
1D	2A	2.f	1ff
.	2B	.	.
.	.	4d	.
2A	2c	4e	2ee
.	.	4f	.
2B-	2d	4g	[2dd
.	.	8f	.
.	.	8g	.
=161	=161	=161	=161
2A	2e	1a	4dd]
.	.	.	4cc
2F	2f	.	1cc
1G	1d	2.g	.
.	.	.	2b
.	.	4f	.
=162	=162	=162	=162
1r	2c	1e	1cc
.	4c	.	.
.	4d	.	.
[1c	4e	2r	[1cc
.	4f	.	.
.	[2g	4c	.
.	.	4d	.
=163	=163	=163	=163
1c]	2g]	4e	1cc]
.	.	4f	.
.	2e	2g	.
1d	2.f	2f	1a
.	.	[2a	.
.	4e	.	.
=164	=164	=164	=164
1B-	1d	4a]	1dd
.	.	4g	.
.	.	2g	.
1A	1e	2a	2cc
.	.	[2cc	[2a
=165	=165	=165	=165
2.A	2f	2cc]	2a]
.	2e	2a	2cc
4A	.	.	.
2G	2g	2b-	2dd
2G	2g	2b-	2ee
=166	=166	=166	=166
1F	1a	1.cc	1ff
1c	[1g	.	1ee-
.	.	2g	.
=167	=167	=167	=167
2.G	1g]	1.b-	1dd
4A	.	.	.
2B-	2.f	.	2dd
2F	.	2a	[2cc
.	4e-	.	.
=168	=168	=168	=168
2G	2d	1g	4cc]
.	.	.	4b-
2E-	2e-	.	1b-
1F	1c	2.f	.
.	.	.	2a
.	.	4e-	.
=169	=169	=169	=169
2r	1B-	0d	1b-
2G	.	.	.
1B-	2r	.	1f
.	2d	.	.
=170	=170	=170	=170
0F	0f	2r	1a
.	.	2f	.
.	.	1a	1cc
=171	=171	=171	=171
0r	1.B-	2b-	0dd
.	.	2b-	.
.	.	2g	.
.	2B-	2f	.
=172	=172	=172	=172
0r	2G	2g	2b-
.	2F	2a	2a
.	2G	2b-	2g
.	2d	[2a	2f#
=173	=173	=173	=173
0r	1e-	4a]	1g
.	.	4g	.
.	.	1g	.
.	1d	.	1a
.	.	2f#	.
=174	=174	=174	=174
1r	1G	2g	2g
.	.	2d	2b-
1D	2r	1f	1a
.	2F	.	.
=175	=175	=175	=175
1F	1A	1f	4a
.	.	.	4g
.	.	.	4f
.	.	.	4g
1F	1c	2r	4a
.	.	.	4b-
.	.	2a	4cc
.	.	.	4a
=176	=176	=176	=176
1B-	0d	2f	2b-
.	.	2f	2dd
2G	.	2g	2b-
2F#	.	2d	2a
=177	=177	=177	=177
2G	2B-	2e-	2g
2D	2A	2d	2f#
2E-	2G	4c	2g
.	.	4B-	.
2D	2F#	2d	[2a
=178	=178	=178	=178
2C	1G	2e-	4a]
.	.	.	4g
2E-	.	2c	1g
1D	1A	1d	.
.	.	.	2f#
=179	=179	=179	=179
0G	0G	0d	0g
==	==	==	==
*-	*-	*-	*-
!!!CDT: 1525/^1526/-1594/2/2
!!!OCY: Italia
!!!AGN: Mass (Paraphrase)
!!!AST: renaissance, vocal
!!!ASW: Hymn
!!!PWK: Masses, Book 5
!!!RNB: Cadence finals: D
!!!YOR: Le Opere Complete, v. 15, p. 20
!!!YOO: Rome, Italy: Fratelli Scalera
!!!END: 1992//
!!!EED: John Miller
!!!YEC: Copyright 2000, John Miller
!!!YEN: United States of America
!!!YEM: Rights to all derivative electronic formats reserved.
!!!YEM: Refer to licensing agreement for further details.
!!!YEM: This file must be accompanied by the licensing agreement.
!!!YEM: A copy of the licensing agreement may be found at http://www.music-cog.ohio-state.edu/HumdrumDatabases/Palestrina/license.txt
!!!EMD: converted to Humdrum by Bret Aarden
